v/0.4.11/design-resources/icons/wf_icons/film.svg

<?xml version="1.0" encoding="utf-8"?>
<!-- Generated by IcoMoon.io -->
<!DOCTYPE svg PUBLIC "-//W3C//DTD SVG 1.1//EN" "http://www.w3.org/Graphics/SVG/1.1/DTD/svg11.dtd">
<svg version="1.1" xmlns="http://www.w3.org/2000/svg" xmlns:xlink="http://www.w3.org/1999/xlink" width="512" height="512" viewBox="0 0 512 512">
<g>
</g>
	<path d="M0 64v384h512v-384h-512zM96 416h-64v-64h64v64zM96 288h-64v-64h64v64zM96 160h-64v-64h64v64zM384 416h-256v-320h256v320zM480 416h-64v-64h64v64zM480 288h-64v-64h64v64zM480 160h-64v-64h64v64zM192 160v192l128-96z" fill="#595959" />
</svg>

<svg xmlns="http://www.w3.org/2000/svg" width="512" height="512" viewBox="0 0 512 512"><path stroke="#449FDB" d="M0 0"/><path d="M0 64v384h512V64H0zm96 352H32v-64h64v64zm0-128H32v-64h64v64zm0-128H32V96h64v64zm288 256H128V96h256v320zm96 0h-64v-64h64v64zm0-128h-64v-64h64v64zm0-128h-64V96h64v64zm-288 0v192l128-96z" fill="#595959"/></svg>
